img/secure-a66bbdfe.svg

<svg width="498" height="333" fill="none" xmlns="http://www.w3.org/2000/svg"><path d="M401.17 125.52C387.072 53.923 324.253.173 248.787.173c-59.916 0-111.954 34.035-137.869 83.841C48.513 90.655 0 143.574 0 207.7c0 68.692 55.77 124.516 124.394 124.516h269.519c57.221 0 103.662-46.486 103.662-103.763 0-54.787-42.502-99.198-96.405-102.933z" fill="#91D3FF" fill-opacity=".3"/><path d="M187.247 121.321l-3.987-3.987-3.481 4.434c-11.519 14.67-18.366 33.15-18.366 53.242 0 48.003 38.882 86.885 86.885 86.885 20.091 0 38.572-6.848 53.242-18.366l4.434-3.482-3.987-3.986-114.74-114.74zM309.348 228.7l3.987 3.986 3.481-4.434c11.519-14.669 18.366-33.15 18.366-53.242 0-48.002-38.882-86.884-86.884-86.884-20.092 0-38.573 6.847-53.242 18.365l-4.435 3.482 3.987 3.986L309.348 228.7zm-158.406-53.69c0-53.739 43.617-97.355 97.356-97.355 53.738 0 97.355 43.616 97.355 97.355 0 53.739-43.617 97.356-97.355 97.356-53.739 0-97.356-43.617-97.356-97.356z" fill="#FF3385" stroke="#FF3385" stroke-width="10"/></svg>

<?xml version="1.0" encoding="UTF-8" standalone="no"?>
<!DOCTYPE svg PUBLIC "-//W3C//DTD SVG 1.1//EN" "http://www.w3.org/Graphics/SVG/1.1/DTD/svg11.dtd">
<svg width="100%" height="100%" viewBox="0 0 498 333" version="1.1" xmlns="http://www.w3.org/2000/svg" xmlns:xlink="http://www.w3.org/1999/xlink" xml:space="preserve" xmlns:serif="http://www.serif.com/" style="fill-rule:evenodd;clip-rule:evenodd;">
    <path d="M401.17,125.52C387.072,53.923 324.253,0.173 248.787,0.173C188.871,0.173 136.833,34.208 110.918,84.014C48.513,90.655 0,143.574 0,207.7C0,276.392 55.77,332.216 124.394,332.216L393.913,332.216C451.134,332.216 497.575,285.73 497.575,228.453C497.575,173.666 455.073,129.255 401.17,125.52Z" style="fill:rgb(145,211,255);fill-opacity:0.3;fill-rule:nonzero;"/>
    <path d="M301.987,236.061L183.26,117.334L179.779,121.768C168.26,136.438 161.413,154.918 161.413,175.01C161.413,223.013 200.295,261.895 248.298,261.895C268.389,261.895 286.87,255.047 301.54,243.529L305.974,240.047L301.987,236.061ZM309.348,228.7L313.335,232.686L316.816,228.252C328.335,213.583 335.182,195.102 335.182,175.01C335.182,127.008 296.3,88.126 248.298,88.126C228.206,88.126 209.725,94.973 195.056,106.491L190.621,109.973L194.608,113.959L309.348,228.7ZM150.942,175.01C150.942,121.271 194.559,77.655 248.298,77.655C302.036,77.655 345.653,121.271 345.653,175.01C345.653,228.749 302.036,272.366 248.298,272.366C194.559,272.366 150.942,228.749 150.942,175.01Z" style="fill:rgb(255,165,0);fill-rule:nonzero;stroke:rgb(255,165,0);stroke-width:10px;"/>
</svg>
